icons/stack-overflow-fill.svg

<svg viewBox="0 0 24 24" fill="currentColor" xmlns="http://www.w3.org/2000/svg"><path d="M18.001 20.0026V14.6693H20.001V22.0026H4.00098V14.6693H6.00098V20.0026H18.001ZM7.59977 14.7359L7.913 12.7566L16.75 14.456L16.6367 16.0421L7.59977 14.7359ZM8.79937 10.2041L9.53245 8.60463L17.5298 12.3367L16.7967 13.9362L8.79937 10.2041ZM11.0653 6.27208L12.1982 4.9392L18.9959 10.604L17.863 11.9368L11.0653 6.27208ZM15.3972 2.14014L20.6621 9.20443L19.2625 10.2707L13.9976 3.20645L15.3972 2.14014ZM7.33319 18.6679V16.6686H16.6634V18.6679H7.33319Z"/></svg>

<svg xmlns="http://www.w3.org/2000/svg" viewBox="0 0 24 24">
    <g>
        <path fill="none" d="M0 0h24v24H0z"/>
        <path d="M18 20.002V14.67h2v7.333H4V14.67h2v5.333h12zM7.599 14.736l.313-1.98 8.837 1.7-.113 1.586-9.037-1.306zm1.2-4.532l.732-1.6 7.998 3.733-.733 1.599-7.998-3.732zm2.265-3.932l1.133-1.333 6.798 5.665-1.133 1.333-6.798-5.665zm4.332-4.132l5.265 7.064-1.4 1.067-5.264-7.065 1.4-1.066zM7.332 18.668v-2h9.33v2h-9.33z"/>
    </g>
</svg>
